build/assets/fonts/e14c0f5e3d367693fa699906a02119c6.svg

<svg width="100" height="60" viewBox="0 0 100 60" version="1.1" xmlns="http://www.w3.org/2000/svg" xmlns:xlink="http://www.w3.org/1999/xlink"><title>2checkout-light</title><desc>Created with Sketch.</desc><g id="Light-Payment-badges" stroke="none" stroke-width="1" fill="none" fill-rule="evenodd" transform="translate(-611.000000, -589.000000)"><g id="2checkout-light" transform="translate(611.000000, 589.000000)"><rect id="Rectangle" fill="#FFF" x="0" y="0" width="100" height="60" rx="4"/><path d="M67.2039046,24.432894 C64.8222765,16.6559554 57.5818034,11 49.0183092,11 C38.5149865,11 30,19.5067394 30,30.0004751 C30,40.4937358 38.5149865,49 49.0183092,49 C57.6236531,49 64.8917089,43.2879792 67.236243,35.4521243 C66.2532507,36.0460377 65.0786058,36.3957338 63.7679494,36.3957338 C59.9448846,36.3957338 57.2779175,33.5002876 57.2779175,30.0004751 L57.2779175,29.9653155 C57.2779175,26.4650279 59.9810275,23.534422 63.8040924,23.534422 C65.0881171,23.534422 66.2370815,23.8665383 67.2039046,24.432894 L67.2039046,24.432894 Z M44.6321757,36.1824002 L35.6340154,36.1824002 L35.6340154,34.4600515 L39.9188536,30.8176999 C41.626131,29.3790042 42.2491208,28.5798345 42.2491208,27.4604266 C42.2491208,26.2345895 41.3774107,25.5233189 40.2393843,25.5233189 C39.1013579,25.5233189 38.3185783,26.1452649 37.3593642,27.3896321 L35.8118766,26.1808997 C37.0031663,24.5103403 38.1763845,23.5695816 40.399174,23.5695816 C42.8359677,23.5695816 44.5075777,25.061967 44.5075777,27.2827278 L44.5075777,27.3178874 C44.5075777,29.2711496 43.4765534,30.338293 41.2713597,32.1319113 L38.7094925,34.2642977 L44.6321757,34.2642977 L44.6321757,36.1824002 L44.6321757,36.1824002 Z M56.9754584,25.2420416 L55.4351042,26.745355 C54.548176,26.0131786 53.5784995,25.5413739 52.3406045,25.5413739 C49.9575496,25.5413739 48.2331519,27.4951112 48.2331519,29.9292055 L48.2331519,29.9653155 C48.2331519,32.3989347 49.9575496,34.3887819 52.3406045,34.3887819 C53.6222514,34.3887819 54.5158376,33.9478607 55.3999124,33.2204356 L56.8575183,34.6448773 C55.6757399,35.7296006 54.3260872,36.3957338 52.2687942,36.3957338 C48.6407108,36.3957338 45.9390276,33.571082 45.9390276,30.0004751 L45.9390276,29.9653155 C45.9390276,26.4293931 48.5893499,23.534422 52.3582004,23.534422 C54.4925349,23.534422 55.8383831,24.2304884 56.9754584,25.2420416 L56.9754584,25.2420416 Z M68,30.0004751 L68,29.9653155 C68,27.5488009 66.2404105,25.5413739 63.7679494,25.5413739 C61.2973907,25.5413739 59.5715662,27.5131661 59.5715662,29.9292055 L59.5715662,29.9653155 C59.5715662,32.3813549 61.3316313,34.3887819 63.8040924,34.3887819 C66.2751267,34.3887819 68,32.4165145 68,30.0004751 L68,30.0004751 Z" id="Fill-72" fill="#008FBE"/></g></g></svg>

<svg width="100" height="60" xmlns="http://www.w3.org/2000/svg"><g fill="none" fill-rule="evenodd"><rect fill="#FFF" width="100" height="60" rx="4"/><path d="M67.204 24.433C64.822 16.656 57.582 11 49.018 11 38.515 11 30 19.507 30 30c0 10.494 8.515 19 19.018 19 8.606 0 15.874-5.712 18.218-13.548a6.65 6.65 0 0 1-3.468.944c-3.823 0-6.49-2.896-6.49-6.396v-.035c0-3.5 2.703-6.43 6.526-6.43 1.284 0 2.433.332 3.4.898zm-22.572 11.75h-8.998V34.46l4.285-3.642c1.707-1.439 2.33-2.238 2.33-3.358 0-1.225-.872-1.937-2.01-1.937s-1.92.622-2.88 1.867l-1.547-1.21c1.191-1.67 2.364-2.61 4.587-2.61 2.437 0 4.109 1.492 4.109 3.713v.035c0 1.953-1.031 3.02-3.237 4.814l-2.562 2.132h5.923v1.918zm12.343-10.941l-1.54 1.503c-.887-.732-1.857-1.204-3.094-1.204-2.383 0-4.108 1.954-4.108 4.388v.036c0 2.434 1.725 4.424 4.108 4.424 1.281 0 2.175-.441 3.059-1.169l1.458 1.425c-1.182 1.085-2.532 1.75-4.59 1.75-3.627 0-6.329-2.824-6.329-6.395v-.035c0-3.536 2.65-6.43 6.42-6.43 2.134 0 3.48.695 4.616 1.707zM68 30v-.035c0-2.416-1.76-4.424-4.232-4.424-2.47 0-4.196 1.972-4.196 4.388v.036c0 2.416 1.76 4.424 4.232 4.424C66.275 34.389 68 32.417 68 30z" fill="#008FBE"/></g></svg>
